src/svg/newspaper-sharp.svg

<svg xmlns="http://www.w3.org/2000/svg" class="ionicon" viewBox="0 0 512 512"><title>Newspaper</title><rect x="96" y="112" width="96" height="96" rx="16" ry="16" fill="none"/><path d="M468 112h-52v304a32 32 0 0032 32 32 32 0 0032-32V124a12 12 0 00-12-12z" fill="currentColor"/><path d="M431.15 477.75A64.11 64.11 0 01384 416V44a12 12 0 00-12-12H44a12 12 0 00-12 12v380a56 56 0 0056 56h342.85a1.14 1.14 0 00.3-2.25zM96 208v-96h96v96zm224 192H96v-32h224zm0-64H96v-32h224zm0-64H96v-32h224zm0-64h-96v-32h96zm0-64h-96v-32h96z" fill="currentColor"/></svg>

<svg xmlns="http://www.w3.org/2000/svg" width="512" height="512" viewBox="0 0 512 512"><title>ionicons-v5-n</title><rect x="96" y="112" width="96" height="96" rx="16" ry="16" style="fill:none"/><path d="M468,112H416V416a32,32,0,0,0,32,32h0a32,32,0,0,0,32-32V124A12,12,0,0,0,468,112Z"/><path d="M431.15,477.75A64.11,64.11,0,0,1,384,416V44a12,12,0,0,0-12-12H44A12,12,0,0,0,32,44V424a56,56,0,0,0,56,56H430.85a1.14,1.14,0,0,0,.3-2.25ZM96,208V112h96v96ZM320,400H96V368H320Zm0-64H96V304H320Zm0-64H96V240H320Zm0-64H224V176h96Zm0-64H224V112h96Z"/></svg>
